_site/images/verification-page/verification-complete.svg

<svg fill="none" height="42" viewBox="0 0 42 42" width="42" xmlns="http://www.w3.org/2000/svg"><path d="m33.6956 41.4715h-25.91969c-4.29489 0-7.77591-3.481-7.77591-7.7759v-25.91969c0-4.29489 3.48102-7.77591 7.77591-7.77591h25.91969c4.2949 0 7.7759 3.48102 7.7759 7.77591v25.91969c0 4.2949-3.481 7.7759-7.7759 7.7759z" fill="#e0f2f4"/><g fill="#00a0b6"><path clip-rule="evenodd" d="m26.1309 10.4029 4.5359 1.5422c.2631.0895.4394.3357.4394.6143v3.4707c0 4.2379-4.7291 6.2972-4.9313 6.384-.0803.035-.1671.0518-.2527.0518-.0855 0-.171-.0181-.2527-.0518-.2022-.0868-4.9312-2.1449-4.9312-6.3827v-3.472c0-.2786.1762-.5248.4393-.6143l4.536-1.5422c.136-.0466.2825-.0466.4173 0zm.2556 7.842 2.3756-3.0235c.2954-.3746.2293-.9176-.1439-1.2118-.3758-.2955-.9189-.2294-1.213.1452l-1.8196 2.3146-.8281-.7089c-.3616-.3111-.9072-.2683-1.2183.0933-.3123.3629-.2695.9072.0933 1.2182l1.5125 1.296c.1568.1348.3577.2074.5624.2074.0272 0 .057-.0013.0843-.0039.2345-.0233.4497-.1413.5948-.3266z" fill-rule="evenodd"/><path d="m10.791 20.7372c-.2346.0052-.4238.197-.4238.4328v7.9898c0 .1192.0972.2164.2164.2164h2.049c.1931 0 .3628-.1283.416-.3136l1.9116-6.7378c.1231-.4355-.1102-.893-.5353-1.0472-.7841-.2864-1.9841-.5676-3.6339-.5404z"/><path d="m29.3726 25.4881c-1.7276 0-5.184 2.1876-6.9128 2.1876-1.7276 0-3.6715-1.3232-3.6715-1.3232s2.3276.4315 3.6715.4315c1.3452 0 1.7275-.4587 1.7275-1.0795 0-1.5124-2.5686-1.747-3.8672-1.944-1.2752-.7102-1.9375-1.2714-4.0499-1.4502-.013.1231-.0324.2449-.0661.3681l-1.7353 6.117c1.966.8942 5.3511 2.3108 7.1279 2.3108 2.5919 0 9.5047-3.4564 9.5047-4.3196-.0013-.867-.8644-1.2985-1.7288-1.2985z"/></g></svg>

<svg width="42" height="42" viewBox="0 0 42 42" fill="none" xmlns="http://www.w3.org/2000/svg">
<path d="M33.6956 41.4715H7.77591C3.48102 41.4715 0 37.9905 0 33.6956V7.77591C0 3.48102 3.48102 0 7.77591 0H33.6956C37.9905 0 41.4715 3.48102 41.4715 7.77591V33.6956C41.4715 37.9905 37.9905 41.4715 33.6956 41.4715Z" fill="#E0F2F4"/>
<path fill-rule="evenodd" clip-rule="evenodd" d="M26.1309 10.4029L30.6668 11.9451C30.9299 12.0346 31.1062 12.2808 31.1062 12.5594V16.0301C31.1062 20.268 26.3771 22.3273 26.1749 22.4141C26.0946 22.4491 26.0078 22.4659 25.9222 22.4659C25.8367 22.4659 25.7512 22.4478 25.6695 22.4141C25.4673 22.3273 20.7383 20.2692 20.7383 16.0314V12.5594C20.7383 12.2808 20.9145 12.0346 21.1776 11.9451L25.7136 10.4029C25.8496 10.3563 25.9961 10.3563 26.1309 10.4029ZM26.3865 18.2449L28.7621 15.2214C29.0575 14.8468 28.9914 14.3038 28.6182 14.0096C28.2424 13.7141 27.6993 13.7802 27.4052 14.1548L25.5856 16.4694L24.7575 15.7605C24.3959 15.4494 23.8503 15.4922 23.5392 15.8538C23.2269 16.2167 23.2697 16.761 23.6325 17.072L25.145 18.368C25.3018 18.5028 25.5027 18.5754 25.7074 18.5754C25.7346 18.5754 25.7644 18.5741 25.7917 18.5715C26.0262 18.5482 26.2414 18.4302 26.3865 18.2449Z" fill="#00A0B6"/>
<path d="M10.791 20.7372C10.5564 20.7424 10.3672 20.9342 10.3672 21.17V29.1598C10.3672 29.279 10.4644 29.3762 10.5836 29.3762H12.6326C12.8257 29.3762 12.9954 29.2479 13.0486 29.0626L14.9602 22.3248C15.0833 21.8893 14.85 21.4318 14.4249 21.2776C13.6408 20.9912 12.4408 20.71 10.791 20.7372Z" fill="#00A0B6"/>
<path d="M29.3726 25.4881C27.645 25.4881 24.1886 27.6757 22.4598 27.6757C20.7322 27.6757 18.7883 26.3525 18.7883 26.3525C18.7883 26.3525 21.1159 26.784 22.4598 26.784C23.805 26.784 24.1873 26.3253 24.1873 25.7045C24.1873 24.1921 21.6187 23.9575 20.3201 23.7605C19.0449 23.0503 18.3826 22.4891 16.2702 22.3103C16.2572 22.4334 16.2378 22.5552 16.2041 22.6784L14.4688 28.7954C16.4348 29.6896 19.8199 31.1062 21.5967 31.1062C24.1886 31.1062 31.1014 27.6498 31.1014 26.7866C31.1001 25.9196 30.237 25.4881 29.3726 25.4881Z" fill="#00A0B6"/>
</svg>
